;PYCAM-META-DATA: Filename: /home/marcell/Dropbox/3dtest/cylinder/circle.dxf
;PYCAM-META-DATA: Timestamp: 2015-05-06 01:01:08.105741
;PYCAM-META-DATA: Version: 0.5.1
;Estimated machine time: 1 minutes
G40 (disable tool radius compensation)
G49 (disable tool length compensation)
G80 (cancel modal motion)
G54 (select coordinate system 1)
G90 (disable incremental moves)
G21 (metric)
G61 (exact path mode)
F200.00000
S1000.00000
;PYCAM_TOOLPATH_SETTINGS: START
;[Bounds]
;maxz = 0.0
;maxx = 17.5
;maxy = 17.5
;minx = -17.5
;miny = -17.5
;minz = 0.0
;
;[Tool]
;torus_radius = 0.25
;speed = 1000.0
;shape = SphericalCutter
;tool_radius = 0.5
;feedrate = 200.0
;
;[Process]
;engrave_offset = 0.0
;step_down = 1.0
;generator = EngraveCutter
;postprocessor = SimpleCutter
;overlap_percent = 0
;milling_style = conventional
;material_allowance = 0.0
;pocketing_type = none
;path_direction = x
;
;PYCAM_TOOLPATH_SETTINGS: END
T3 M6
G0 Z25.0000
M3 (start spindle)
G04 P3 (wait for 3 seconds)
 X-15.0000 Y0.0000
G1 Z0.0000
 X-14.9700 Y0.9420
 X-14.8820 Y1.8800
 X-14.7340 Y2.8110
 X-14.5290 Y3.7300
 X-14.2660 Y4.6350
 X-13.9470 Y5.5220
 X-13.5720 Y6.3870
 X-13.1450 Y7.2260
 X-12.6650 Y8.0370
 X-12.1350 Y8.8170
 X-11.5580 Y9.5610
 X-10.9350 Y10.2680
 X-10.2680 Y10.9350
 X-9.5610 Y11.5580
 X-8.8170 Y12.1350
 X-8.0370 Y12.6650
 X-7.2260 Y13.1450
 X-6.3870 Y13.5720
 X-5.5220 Y13.9470
 X-4.6350 Y14.2660
 X-3.7300 Y14.5290
 X-2.8110 Y14.7340
 X-1.8800 Y14.8820
 X-0.9420 Y14.9700
 X0.0000 Y15.0000
 X0.9420 Y14.9700
 X1.8800 Y14.8820
 X2.8110 Y14.7340
 X3.7300 Y14.5290
 X4.6350 Y14.2660
 X5.5220 Y13.9470
 X6.3870 Y13.5720
 X7.2260 Y13.1450
 X8.0370 Y12.6650
 X8.8170 Y12.1350
 X9.5610 Y11.5580
 X10.2680 Y10.9350
 X10.9350 Y10.2680
 X11.5580 Y9.5610
 X12.1350 Y8.8170
 X12.6650 Y8.0370
 X13.1450 Y7.2260
 X13.5720 Y6.3870
 X13.9470 Y5.5220
 X14.2660 Y4.6350
 X14.5290 Y3.7300
 X14.7340 Y2.8110
 X14.8820 Y1.8800
 X14.9700 Y0.9420
 X15.0000 Y0.0000
 X14.9700 Y-0.9420
 X14.8820 Y-1.8800
 X14.7340 Y-2.8110
 X14.5290 Y-3.7300
 X14.2660 Y-4.6350
 X13.9470 Y-5.5220
 X13.5720 Y-6.3870
 X13.1450 Y-7.2260
 X12.6650 Y-8.0370
 X12.1350 Y-8.8170
 X11.5580 Y-9.5610
 X10.9350 Y-10.2680
 X10.2680 Y-10.9350
 X9.5610 Y-11.5580
 X8.8170 Y-12.1350
 X8.0370 Y-12.6650
 X7.2260 Y-13.1450
 X6.3870 Y-13.5720
 X5.5220 Y-13.9470
 X4.6350 Y-14.2660
 X3.7300 Y-14.5290
 X2.8110 Y-14.7340
 X1.8800 Y-14.8820
 X0.9420 Y-14.9700
 X0.0000 Y-15.0000
 X-0.9420 Y-14.9700
 X-1.8800 Y-14.8820
 X-2.8110 Y-14.7340
 X-3.7300 Y-14.5290
 X-4.6350 Y-14.2660
 X-5.5220 Y-13.9470
 X-6.3870 Y-13.5720
 X-7.2260 Y-13.1450
 X-8.0370 Y-12.6650
 X-8.8170 Y-12.1350
 X-9.5610 Y-11.5580
 X-10.2680 Y-10.9350
 X-10.9350 Y-10.2680
 X-11.5580 Y-9.5610
 X-12.1350 Y-8.8170
 X-12.6650 Y-8.0370
 X-13.1450 Y-7.2260
 X-13.5720 Y-6.3870
 X-13.9470 Y-5.5220
 X-14.2660 Y-4.6350
 X-14.5290 Y-3.7300
 X-14.7340 Y-2.8110
 X-14.8820 Y-1.8800
 X-14.9700 Y-0.9420
 X-15.0000 Y0.0000
G0 Z25.0000
M5 (stop spindle)
G04 P3 (wait for 3 seconds)
G0 Z25.0000
M2 (end program)
