;PYCAM-META-DATA: Filename: /home/marcell/Dropbox/3dtest/cylinder/cylinder.stl
;PYCAM-META-DATA: Timestamp: 2015-05-06 00:56:31.380777
;PYCAM-META-DATA: Version: 0.5.1
;Estimated machine time: 28 minutes
G40 (disable tool radius compensation)
G49 (disable tool length compensation)
G80 (cancel modal motion)
G54 (select coordinate system 1)
G90 (disable incremental moves)
G21 (metric)
G61 (exact path mode)
F200.00000
S1000.00000
;PYCAM_TOOLPATH_SETTINGS: START
;[Bounds]
;maxz = 20.0
;maxx = 16.5
;maxy = 16.5
;minx = -16.5
;miny = -16.5
;minz = 0.0
;
;[Tool]
;torus_radius = 0.25
;speed = 1000.0
;shape = CylindricalCutter
;tool_radius = 1.5
;feedrate = 200.0
;
;[Process]
;engrave_offset = 0.0
;step_down = 3.0
;generator = PushCutter
;postprocessor = SimpleCutter
;overlap_percent = 0
;milling_style = ignore
;material_allowance = 0.5
;pocketing_type = none
;path_direction = x
;
;PYCAM_TOOLPATH_SETTINGS: END
T1 M6
G0 Z25.0000
M3 (start spindle)
G04 P3 (wait for 3 seconds)
 X-16.5000 Y-16.5000
G1 Z20.0000
 X-4.0796
G0 Z25.0000
 X4.0796
G1 Z20.0000
 X16.5000
 Y-13.5000
 X10.3205
G0 Z25.0000
 X-10.3205
G1 Z20.0000
 X-16.5000
 Y-10.5000
 X-13.3608
G0 Z25.0000
 X13.3608
G1 Z20.0000
 X16.5000
 Y-7.5000
 X15.2498
G0 Z25.0000
 X-15.2498
G1 Z20.0000
 X-16.5000
 Y-4.5000
 X-16.3878
G0 Z25.0000
 X16.3878
G1 Z20.0000
 X16.5000
G0 Z25.0000
 Y4.5000
G1 Z20.0000
 X16.3878
G0 Z25.0000
 X-16.3878
G1 Z20.0000
 X-16.5000
 Y7.5000
 X-15.2498
G0 Z25.0000
 X15.2498
G1 Z20.0000
 X16.5000
 Y10.5000
 X13.3608
G0 Z25.0000
 X-13.3608
G1 Z20.0000
 X-16.5000
 Y13.5000
 X-10.3205
G0 Z25.0000
 X10.3205
G1 Z20.0000
 X16.5000
 Y16.5000
 X4.0796
G0 Z25.0000
 X-4.0796
G1 Z20.0000
 X-16.5000
 Z17.1429
 X-4.0796
G0 Z25.0000
 X4.0796
G1 Z17.1429
 X16.5000
 Y13.5000
 X10.3205
G0 Z25.0000
 X-10.3205
G1 Z17.1429
 X-16.5000
 Y10.5000
 X-13.3608
G0 Z25.0000
 X13.3608
G1 Z17.1429
 X16.5000
 Y7.5000
 X15.2498
G0 Z25.0000
 X-15.2498
G1 Z17.1429
 X-16.5000
 Y4.5000
 X-16.3878
G0 Z25.0000
 X16.3878
G1 Z17.1429
 X16.5000
G0 Z25.0000
 Y-4.5000
G1 Z17.1429
 X16.3878
G0 Z25.0000
 X-16.3878
G1 Z17.1429
 X-16.5000
 Y-7.5000
 X-15.2498
G0 Z25.0000
 X15.2498
G1 Z17.1429
 X16.5000
 Y-10.5000
 X13.3608
G0 Z25.0000
 X-13.3608
G1 Z17.1429
 X-16.5000
 Y-13.5000
 X-10.3205
G0 Z25.0000
 X10.3205
G1 Z17.1429
 X16.5000
 Y-16.5000
 X4.0796
G0 Z25.0000
 X-4.0796
G1 Z17.1429
 X-16.5000
 Z14.2857
 X-4.0796
G0 Z25.0000
 X4.0796
G1 Z14.2857
 X16.5000
 Y-13.5000
 X10.3205
G0 Z25.0000
 X-10.3205
G1 Z14.2857
 X-16.5000
 Y-10.5000
 X-13.3608
G0 Z25.0000
 X13.3608
G1 Z14.2857
 X16.5000
 Y-7.5000
 X15.2498
G0 Z25.0000
 X-15.2498
G1 Z14.2857
 X-16.5000
 Y-4.5000
 X-16.3878
G0 Z25.0000
 X16.3878
G1 Z14.2857
 X16.5000
G0 Z25.0000
 Y4.5000
G1 Z14.2857
 X16.3878
G0 Z25.0000
 X-16.3878
G1 Z14.2857
 X-16.5000
 Y7.5000
 X-15.2498
G0 Z25.0000
 X15.2498
G1 Z14.2857
 X16.5000
 Y10.5000
 X13.3608
G0 Z25.0000
 X-13.3608
G1 Z14.2857
 X-16.5000
 Y13.5000
 X-10.3205
G0 Z25.0000
 X10.3205
G1 Z14.2857
 X16.5000
 Y16.5000
 X4.0796
G0 Z25.0000
 X-4.0796
G1 Z14.2857
 X-16.5000
 Z11.4286
 X-4.0796
G0 Z25.0000
 X4.0796
G1 Z11.4286
 X16.5000
 Y13.5000
 X10.3205
G0 Z25.0000
 X-10.3205
G1 Z11.4286
 X-16.5000
 Y10.5000
 X-13.3608
G0 Z25.0000
 X13.3608
G1 Z11.4286
 X16.5000
 Y7.5000
 X15.2498
G0 Z25.0000
 X-15.2498
G1 Z11.4286
 X-16.5000
 Y4.5000
 X-16.3878
G0 Z25.0000
 X16.3878
G1 Z11.4286
 X16.5000
G0 Z25.0000
 Y-4.5000
G1 Z11.4286
 X16.3878
G0 Z25.0000
 X-16.3878
G1 Z11.4286
 X-16.5000
 Y-7.5000
 X-15.2498
G0 Z25.0000
 X15.2498
G1 Z11.4286
 X16.5000
 Y-10.5000
 X13.3608
G0 Z25.0000
 X-13.3608
G1 Z11.4286
 X-16.5000
 Y-13.5000
 X-10.3205
G0 Z25.0000
 X10.3205
G1 Z11.4286
 X16.5000
 Y-16.5000
 X4.0796
G0 Z25.0000
 X-4.0796
G1 Z11.4286
 X-16.5000
 Z8.5714
 X-4.0796
G0 Z25.0000
 X4.0796
G1 Z8.5714
 X16.5000
 Y-13.5000
 X10.3205
G0 Z25.0000
 X-10.3205
G1 Z8.5714
 X-16.5000
 Y-10.5000
 X-13.3608
G0 Z25.0000
 X13.3608
G1 Z8.5714
 X16.5000
 Y-7.5000
 X15.2498
G0 Z25.0000
 X-15.2498
G1 Z8.5714
 X-16.5000
 Y-4.5000
 X-16.3878
G0 Z25.0000
 X16.3878
G1 Z8.5714
 X16.5000
G0 Z25.0000
 Y4.5000
G1 Z8.5714
 X16.3878
G0 Z25.0000
 X-16.3878
G1 Z8.5714
 X-16.5000
 Y7.5000
 X-15.2498
G0 Z25.0000
 X15.2498
G1 Z8.5714
 X16.5000
 Y10.5000
 X13.3608
G0 Z25.0000
 X-13.3608
G1 Z8.5714
 X-16.5000
 Y13.5000
 X-10.3205
G0 Z25.0000
 X10.3205
G1 Z8.5714
 X16.5000
 Y16.5000
 X4.0796
G0 Z25.0000
 X-4.0796
G1 Z8.5714
 X-16.5000
 Z5.7143
 X-4.0796
G0 Z25.0000
 X4.0796
G1 Z5.7143
 X16.5000
 Y13.5000
 X10.3205
G0 Z25.0000
 X-10.3205
G1 Z5.7143
 X-16.5000
 Y10.5000
 X-13.3608
G0 Z25.0000
 X13.3608
G1 Z5.7143
 X16.5000
 Y7.5000
 X15.2498
G0 Z25.0000
 X-15.2498
G1 Z5.7143
 X-16.5000
 Y4.5000
 X-16.3878
G0 Z25.0000
 X16.3878
G1 Z5.7143
 X16.5000
G0 Z25.0000
 Y-4.5000
G1 Z5.7143
 X16.3878
G0 Z25.0000
 X-16.3878
G1 Z5.7143
 X-16.5000
 Y-7.5000
 X-15.2498
G0 Z25.0000
 X15.2498
G1 Z5.7143
 X16.5000
 Y-10.5000
 X13.3608
G0 Z25.0000
 X-13.3608
G1 Z5.7143
 X-16.5000
 Y-13.5000
 X-10.3205
G0 Z25.0000
 X10.3205
G1 Z5.7143
 X16.5000
 Y-16.5000
 X4.0796
G0 Z25.0000
 X-4.0796
G1 Z5.7143
 X-16.5000
 Z2.8571
 X-4.0796
G0 Z25.0000
 X4.0796
G1 Z2.8571
 X16.5000
 Y-13.5000
 X10.3205
G0 Z25.0000
 X-10.3205
G1 Z2.8571
 X-16.5000
 Y-10.5000
 X-13.3608
G0 Z25.0000
 X13.3608
G1 Z2.8571
 X16.5000
 Y-7.5000
 X15.2498
G0 Z25.0000
 X-15.2498
G1 Z2.8571
 X-16.5000
 Y-4.5000
 X-16.3878
G0 Z25.0000
 X16.3878
G1 Z2.8571
 X16.5000
G0 Z25.0000
 Y4.5000
G1 Z2.8571
 X16.3878
G0 Z25.0000
 X-16.3878
G1 Z2.8571
 X-16.5000
 Y7.5000
 X-15.2498
G0 Z25.0000
 X15.2498
G1 Z2.8571
 X16.5000
 Y10.5000
 X13.3608
G0 Z25.0000
 X-13.3608
G1 Z2.8571
 X-16.5000
 Y13.5000
 X-10.3205
G0 Z25.0000
 X10.3205
G1 Z2.8571
 X16.5000
 Y16.5000
 X4.0796
G0 Z25.0000
 X-4.0796
G1 Z2.8571
 X-16.5000
 Z0.0000
 X-4.0796
G0 Z25.0000
 X4.0796
G1 Z0.0000
 X16.5000
 Y13.5000
 X10.3205
G0 Z25.0000
 X-10.3205
G1 Z0.0000
 X-16.5000
 Y10.5000
 X-13.3608
G0 Z25.0000
 X13.3608
G1 Z0.0000
 X16.5000
 Y7.5000
 X15.2498
G0 Z25.0000
 X-15.2498
G1 Z0.0000
 X-16.5000
 Y4.5000
 X-16.3878
G0 Z25.0000
 X16.3878
G1 Z0.0000
 X16.5000
G0 Z25.0000
 Y-4.5000
G1 Z0.0000
 X16.3878
G0 Z25.0000
 X-16.3878
G1 Z0.0000
 X-16.5000
 Y-7.5000
 X-15.2498
G0 Z25.0000
 X15.2498
G1 Z0.0000
 X16.5000
 Y-10.5000
 X13.3608
G0 Z25.0000
 X-13.3608
G1 Z0.0000
 X-16.5000
 Y-13.5000
 X-10.3205
G0 Z25.0000
 X10.3205
G1 Z0.0000
 X16.5000
 Y-16.5000
 X4.0796
G0 Z25.0000
 X-4.0796
G1 Z0.0000
 X-16.5000
G0 Z25.0000
M5 (stop spindle)
G04 P3 (wait for 3 seconds)
G0 Z25.0000
M2 (end program)
